icons/svgs/circle-small-outline.svg

<svg width="24" height="24" viewBox="0 0 24 24" fill="none" xmlns="http://www.w3.org/2000/svg">
<path d="M16.875 12C16.875 10.4375 16.0156 9.03125 14.6875 8.25C13.3203 7.42969 11.6406 7.42969 10.3125 8.25C8.94531 9.03125 8.125 10.4375 8.125 12C8.125 13.6016 8.94531 15.0078 10.3125 15.7891C11.6406 16.6094 13.3203 16.6094 14.6875 15.7891C16.0156 15.0078 16.875 13.6016 16.875 12ZM6.25 12C6.25 9.77344 7.42188 7.74219 9.375 6.60938C11.2891 5.47656 13.6719 5.47656 15.625 6.60938C17.5391 7.74219 18.75 9.77344 18.75 12C18.75 14.2656 17.5391 16.2969 15.625 17.4297C13.6719 18.5625 11.2891 18.5625 9.375 17.4297C7.42188 16.2969 6.25 14.2656 6.25 12Z" fill="black"/>
</svg>

<svg xmlns="http://www.w3.org/2000/svg" width="24" height="24" fill="currentColor" class="icon-circle-small-outline" viewBox="0 0 24 24">
  <mask id="a" width="13" height="14" x="6" y="5" maskUnits="userSpaceOnUse" style="mask-type:alpha">
    <path d="M16.875 12c0-1.562-.86-2.969-2.187-3.75-1.368-.82-3.047-.82-4.376 0A4.29 4.29 0 0 0 8.126 12c0 1.602.82 3.008 2.188 3.79 1.328.82 3.007.82 4.374 0 1.329-.782 2.188-2.188 2.188-3.79M6.25 12c0-2.227 1.172-4.258 3.125-5.39 1.914-1.133 4.297-1.133 6.25 0C17.539 7.741 18.75 9.772 18.75 12c0 2.266-1.21 4.297-3.125 5.43-1.953 1.133-4.336 1.133-6.25 0A6.22 6.22 0 0 1 6.25 12"/>
  </mask>
  <g mask="url(#a)">
    <path d="M0 0h24v24H0z"/>
  </g>
</svg>
